X: 19857
T: Jessica's
R: jig
M: 6/8
K: Adorian
EAA cAA|GAA BAA|EAA cAA|eAd cBA|
EAA cAA|GAA BAB|cBA BAG|1 EGE DB,G,:|2 Acd _e=eg||
aAA aAA|aAa ~agf|gBB gBB|gBg ~gfe|
aAA aAA|aAa ~agf|gfe fed|edc dcA|
aAA aAA|aAa ~agf|gBB gBB|gBg ~gfe|
agf gfe|fed edc|dcA cAG|EGE DB,G,||

